X:558
T:Reel 558
M:4/4
K:Gmaj
L:1/8
ge|d>G (3GGG dcBc|d>G (3GGG G2ge|d>G (3GGG dcBc| (3def ed edBdc:||2ABAG AGFGAc|d>B (3BBB dBdB| (3BAG dG cedc| (3BcB de dBdB| (3ABA =fd c2:|
